X:1
T:Title
%%score { 1 | 2 }
L:1/8
M:4/4
K:Eb
V:1 treble nm="Grand Piano"
V:2 bass 
V:1
 z4 z2[Q:1/4=100] EF | G<G G2 G2 B2 | c2 B2 G2 E2 | [DF]3 [DF] [CE]2 [DF]2 | G6 EF | G<G G2 G2 B2 | %6
 c2 B2 G2 E2 | F2 B2 =A2 c2 | [DFB]6 [DF][EG] | [FA]<[FA] [EG]2 [DF]2 [DF]2 | c2 B2 G3 G | %11
 [=B,FG]2 [B,FG]2 [CEG]2 [CEG]2 | [=B,DG]6 EF | G<G G2 G2 c2 | B2 G2 E2 [=A,EF]2 | %15
 [B,EG]2 [G,E]2 [B,EG]3 [A,DF] | [G,E]6 z2 |[M:1/4] [B,EG][B,FA] |[M:4/4] [GB]<[GB] [EG]2 [EB]4 | %19
 [Ec]<[Ec] A2 c4 | e3 d e2 c2 | [GB]6 [GB]2 | [Ge]<[Ge] [Ad]2 e2 c2 | B2 A2 G2 [Ec]2 | %24
 [EB]3 [B,EG] [=A,EF]2 [_A,DF]2[Q:1/4=99][Q:1/4=97][Q:1/4=96][Q:1/4=94][Q:1/4=93][Q:1/4=91][Q:1/4=90][Q:1/4=88][Q:1/4=87][Q:1/4=85][Q:1/4=84][Q:1/4=82][Q:1/4=81][Q:1/4=79][Q:1/4=78][Q:1/4=76] | %25
[M:3/4] [G,E]6 |] %26
V:2
 z4 z2 [E,G,][E,A,E] | [E,B,E]<[E,B,E] [E,B,E]2 [E,B,E]2 [E,G,E]2 | %2
 [E,A,E]2 [E,G,E]2 [E,B,E]2 [E,G,]2 | [B,,B,]3 [B,,B,] [B,,B,]2 [B,,B,]2 | [E,B,E]6 [E,G,][E,A,E] | %5
 [E,B,E]<[E,B,E] [E,B,E]2 [E,B,E]2 [E,G,E]2 | [E,A,E]2 [E,G,E]2 [E,B,E]2 [G,B,]2 | %7
 [F,B,D]2 [F,DF]2 [F,CF]2 [F,EF]2 | B,,6 [B,,B,][B,,B,] | %9
 [B,,B,]<[B,,B,] [B,,B,]2 [B,,B,]2 [B,,A,]2 | [E,A,E]2 [E,G,E]2 [E,B,E]3 [E,B,E] | %11
 D,2 D,2 C,2 C,2 | G,,6 [E,G,][E,A,E] | [E,B,E]<[E,B,E] [E,B,E]2 [E,B,E]2 [E,A,E]2 | %14
 [E,G,E]2 [E,B,E]2 [E,G,]2 C,2 | B,,2 B,,2 B,,3 B,, | E,6 z2 |[M:1/4] E,E, | %18
[M:4/4] [E,E]<[E,E] [E,B,]2 [E,G,]4 | [A,,A,]<[A,,A,][K:treble] [A,CE]2 [A,EA]4 | %20
 [A,CE]3 [A,=B,E] [A,CE]2 [A,EA]2 | [E,E]6 [E,E]2 | [E,B,]<[E,B,] [F,B,]2 [G,B,E]2 [A,B,E]2 | %23
 [G,B,E]2 [F,B,D]2 [E,B,E]2 [A,,A,]2 | [B,,G,]3 B,, C,2 B,,2 |[M:3/4] E,6 |] %26

